X:21032 
T:COMB YOUR HAIR AND CURL IT 
B:DMI.0447
Z:Nordberg/Black
R:slip jig
%Q:1/4=150
M:9/8
L:1/8
K:Em
B2E E2F G2A|B2e e2^c dBA|B2E E2F G2A|B2G A2G FED|
B2E E2F G2A|B2e e2^c dBA|B2E E2F G2A|BAG A2G FED||
g2e efe e2f|g2e e2g afd|g2e efe edc|d2B A2G FED|
g2e efe e2f|gfg e2g afd|gfg agf g2e|d2B ABG FED||
"final"E6z3|]

%%%

